dist/img/svgs/article.svg

<?xml version="1.0" encoding="UTF-8"?>
<svg width="600mm" height="500mm" version="1.1" viewBox="0 0 600 500" xmlns="http://www.w3.org/2000/svg" xmlns:cc="http://creativecommons.org/ns#" xmlns:dc="http://purl.org/dc/elements/1.1/" xmlns:rdf="http://www.w3.org/1999/02/22-rdf-syntax-ns#">
<metadata>
<rdf:RDF>
<cc:Work rdf:about="">
<dc:format>image/svg+xml</dc:format>
<dc:type rdf:resource="http://purl.org/dc/dcmitype/StillImage"/>
<dc:title/>
</cc:Work>
</rdf:RDF>
</metadata>
<g transform="translate(0,203)">
<flowRoot fill="black" font-family="sans-serif" font-size="40px" letter-spacing="0px" word-spacing="0px" style="line-height:1.25" xml:space="preserve"><flowRegion><rect x="11.429" y="21.192" width="677.14" height="691.43"/></flowRegion><flowPara/></flowRoot>
<text x="21.166666" y="-161.10715" fill="#000000" font-family="sans-serif" font-size="25.4px" letter-spacing="0px" stroke-width=".26458" word-spacing="0px" style="line-height:1.25" xml:space="preserve"><tspan x="21.166666" y="-151.74338" font-size="25.4px" stroke-width=".26458"/></text>
<flowRoot fill="#000000" fill-opacity="0" font-family="sans-serif" font-size="192px" letter-spacing="0px" word-spacing="0px" style="line-height:1.25" xml:space="preserve"><flowRegion fill="#000000" fill-opacity="0" font-size="192px"><rect x="57.143" y="44.05" width="217.14" height="451.43" fill-opacity="0"/></flowRegion><flowPara/></flowRoot>
<g transform="matrix(1.1454 0 0 1.1454 -62.191 -401.37)" aria-label="T">
<path d="m177.8 214.06 5.376 28.032h9.6l-1.92-36.48h-113.66l-1.536 36.48h9.6l5.376-28.032h35.136c0.384 18.432 0.384 37.44 0.384 56.256v10.56c0 18.816 0 37.44-0.384 55.68l-22.272 2.112v6.912h61.248v-6.912l-22.08-2.112c-0.576-18.432-0.576-37.248-0.576-55.68v-10.56c0-19.2 0-38.016 0.576-56.256z" style=""/>
</g>
<path d="m571.35-160.33-389.32 1.5779" fill="none" stroke="#000" stroke-width="11.965"/>
<path d="m571.35-119.13-389.32 1.5779" fill="none" stroke="#000" stroke-width="11.965"/>
<path d="m571.05-78.552-425.32 1.4704" fill="none" stroke="#000" stroke-width="12.072"/>
<path d="m571.57-39.96-425.32 1.4704" fill="none" stroke="#000" stroke-width="12.072"/>
<path d="m571.58 2.0428-425.32 1.4704" fill="none" stroke="#000" stroke-width="12.072"/>
<path d="m570.49 47.281-519.62 1.2482" fill="none" stroke="#000" stroke-width="12.295"/>
<rect x="52.161" y="88.758" width="514.05" height="196.87" rx="0" ry="0" fill="#999" stroke="#999" stroke-linecap="round" stroke-linejoin="round" stroke-width="11.965" style="paint-order:fill markers stroke"/>
<g transform="translate(-848.66 -39.303)">
<flowRoot fill="#000000" font-family="sans-serif" font-size="40px" letter-spacing="0px" word-spacing="0px" style="line-height:1.25" xml:space="preserve"><flowRegion><rect x="11.429" y="21.192" width="677.14" height="691.43"/></flowRegion><flowPara/></flowRoot>
<text x="21.166666" y="-161.10715" fill="#000000" font-family="sans-serif" font-size="25.4px" letter-spacing="0px" stroke-width=".26458" word-spacing="0px" style="line-height:1.25" xml:space="preserve"><tspan x="21.166666" y="-138.63409" font-size="25.4px" stroke-width=".26458"/></text>
<flowRoot fill="#000000" fill-opacity="0" font-family="sans-serif" font-size="192px" letter-spacing="0px" word-spacing="0px" style="line-height:1.25" xml:space="preserve"><flowRegion fill="#000000" fill-opacity="0" font-size="192px"><rect x="57.143" y="44.05" width="217.14" height="451.43" fill-opacity="0"/></flowRegion><flowPara/></flowRoot>
<g transform="matrix(1.1454 0 0 1.1454 -62.191 -401.37)" aria-label="T">
<path d="m177.8 214.06 5.376 28.032h9.6l-1.92-36.48h-113.66l-1.536 36.48h9.6l5.376-28.032h35.136c0.384 18.432 0.384 37.44 0.384 56.256v10.56c0 18.816 0 37.44-0.384 55.68l-22.272 2.112v6.912h61.248v-6.912l-22.08-2.112c-0.576-18.432-0.576-37.248-0.576-55.68v-10.56c0-19.2 0-38.016 0.576-56.256z"/>
</g>
<path d="m571.35-160.33-389.32 1.5779" fill="none" stroke="#000" stroke-width="11.965"/>
<path d="m571.35-119.13-389.32 1.5779" fill="none" stroke="#000" stroke-width="11.965"/>
<path d="m571.05-78.552-425.32 1.4704" fill="none" stroke="#000" stroke-width="12.072"/>
<path d="m571.57-39.96-425.32 1.4704" fill="none" stroke="#000" stroke-width="12.072"/>
<path d="m571.58 2.0428-425.32 1.4704" fill="none" stroke="#000" stroke-width="12.072"/>
<path d="m570.49 47.281-519.62 1.2482" fill="none" stroke="#000" stroke-width="12.295"/>
<rect x="52.161" y="88.758" width="514.05" height="196.87" rx="0" ry="0" fill="#999" stroke="#999" stroke-linecap="round" stroke-linejoin="round" stroke-width="11.965" style="paint-order:fill markers stroke"/>
</g>
<g transform="translate(509.77 -407.46)" fill="none" stroke="#000" stroke-linecap="round" stroke-width="30">
<path d="m400.93 196.9 158.44-155.59-157.96-157.01" stroke-linejoin="round"/>
<path d="m194.24 196.9-158.44-155.59 157.96-157.01" stroke-linejoin="round"/>
<path d="m235.85 239.55 126.24-403.68"/>
</g>
</g>
</svg>

<?xml version="1.0" encoding="UTF-8" standalone="no"?>
<svg
   xmlns:dc="http://purl.org/dc/elements/1.1/"
   xmlns:cc="http://creativecommons.org/ns#"
   xmlns:rdf="http://www.w3.org/1999/02/22-rdf-syntax-ns#"
   xmlns:svg="http://www.w3.org/2000/svg"
   xmlns="http://www.w3.org/2000/svg"
   xmlns:sodipodi="http://sodipodi.sourceforge.net/DTD/sodipodi-0.dtd"
   xmlns:inkscape="http://www.inkscape.org/namespaces/inkscape"
   width="300mm"
   height="168mm"
   version="1.1"
   viewBox="0 0 600 336"
   id="svg1245"
   sodipodi:docname="article.svg"
   inkscape:version="0.92.4 (unknown)">
  <defs
     id="defs1249" />
  <sodipodi:namedview
     pagecolor="#ffffff"
     bordercolor="#666666"
     borderopacity="1"
     objecttolerance="10"
     gridtolerance="10"
     guidetolerance="10"
     inkscape:pageopacity="0"
     inkscape:pageshadow="2"
     inkscape:window-width="1861"
     inkscape:window-height="1025"
     id="namedview1247"
     showgrid="false"
     inkscape:zoom="0.44661666"
     inkscape:cx="-387.85024"
     inkscape:cy="156.36248"
     inkscape:window-x="59"
     inkscape:window-y="27"
     inkscape:window-maximized="1"
     inkscape:current-layer="svg1245" />
  <metadata
     id="metadata1155">
    <rdf:RDF>
      <cc:Work
         rdf:about="">
        <dc:format>image/svg+xml</dc:format>
        <dc:type
           rdf:resource="http://purl.org/dc/dcmitype/StillImage" />
        <dc:title />
      </cc:Work>
    </rdf:RDF>
  </metadata>
  <g
     transform="matrix(0.68851662,0,0,0.68851662,671.76901,161.17764)"
     id="g1243">
    <flowRoot
       font-size="40px"
       letter-spacing="0px"
       word-spacing="0px"
       style="font-size:40px;line-height:1.25;font-family:sans-serif;letter-spacing:0px;word-spacing:0px;fill:#000000"
       xml:space="preserve"
       id="flowRoot1163"><flowRegion
         id="flowRegion1159"><rect
           x="11.429"
           y="21.191999"
           width="677.14001"
           height="691.42999"
           id="rect1157" /></flowRegion><flowPara
         id="flowPara1161" /></flowRoot>    <text
       x="21.166666"
       y="-161.10715"
       font-size="25.4px"
       letter-spacing="0px"
       word-spacing="0px"
       style="font-size:25.39999962px;line-height:1.25;font-family:sans-serif;letter-spacing:0px;word-spacing:0px;fill:#000000;stroke-width:0.26458001"
       xml:space="preserve"
       id="text1167"><tspan
         x="21.166666"
         y="-151.74338"
         font-size="25.4px"
         id="tspan1165"
         style="font-size:25.39999962px;stroke-width:0.26458001" /></text>
    <flowRoot
       font-size="192px"
       letter-spacing="0px"
       word-spacing="0px"
       style="font-size:192px;line-height:1.25;font-family:sans-serif;letter-spacing:0px;word-spacing:0px;fill:#000000;fill-opacity:0"
       xml:space="preserve"
       id="flowRoot1175"><flowRegion
         font-size="192px"
         id="flowRegion1171"
         style="font-size:192px;fill:#000000;fill-opacity:0"><rect
           x="57.143002"
           y="44.049999"
           width="217.14"
           height="451.42999"
           id="rect1169"
           style="fill-opacity:0" /></flowRegion><flowPara
         id="flowPara1173" /></flowRoot>    <g
       transform="matrix(1.1454,0,0,1.1454,-62.191,-401.37)"
       aria-label="T"
       id="g1179">
      <path
         d="m 177.8,214.06 5.376,28.032 h 9.6 l -1.92,-36.48 H 77.196 l -1.536,36.48 h 9.6 l 5.376,-28.032 h 35.136 c 0.384,18.432 0.384,37.44 0.384,56.256 v 10.56 c 0,18.816 0,37.44 -0.384,55.68 l -22.272,2.112 v 6.912 h 61.248 v -6.912 l -22.08,-2.112 c -0.576,-18.432 -0.576,-37.248 -0.576,-55.68 v -10.56 c 0,-19.2 0,-38.016 0.576,-56.256 z"
         id="path1177"
         inkscape:connector-curvature="0" />
    </g>
    <path
       d="m 571.35,-160.33 -389.32,1.5779"
       id="path1181"
       inkscape:connector-curvature="0"
       style="fill:none;stroke:#000000;stroke-width:11.96500015" />
    <path
       d="m 571.35,-119.13 -389.32,1.5779"
       id="path1183"
       inkscape:connector-curvature="0"
       style="fill:none;stroke:#000000;stroke-width:11.96500015" />
    <path
       d="m 571.05,-78.552 -425.32,1.4704"
       id="path1185"
       inkscape:connector-curvature="0"
       style="fill:none;stroke:#000000;stroke-width:12.07199955" />
    <path
       d="m 571.57,-39.96 -425.32,1.4704"
       id="path1187"
       inkscape:connector-curvature="0"
       style="fill:none;stroke:#000000;stroke-width:12.07199955" />
    <path
       d="M 571.58,2.0428 146.26,3.5132"
       id="path1189"
       inkscape:connector-curvature="0"
       style="fill:none;stroke:#000000;stroke-width:12.07199955" />
    <path
       d="M 570.49,47.281 50.87,48.5292"
       id="path1191"
       inkscape:connector-curvature="0"
       style="fill:none;stroke:#000000;stroke-width:12.29500008" />
    <rect
       x="52.160999"
       y="88.758003"
       width="514.04999"
       height="196.87"
       rx="0"
       ry="0"
       style="fill:#999999;stroke:#999999;stroke-width:11.96500015;stroke-linecap:round;stroke-linejoin:round;paint-order:fill markers stroke"
       id="rect1193" />
    <g
       transform="translate(-848.66,-39.303)"
       id="g1233">
      <flowRoot
         font-size="40px"
         letter-spacing="0px"
         word-spacing="0px"
         style="font-size:40px;line-height:1.25;font-family:sans-serif;letter-spacing:0px;word-spacing:0px;fill:#000000"
         xml:space="preserve"
         id="flowRoot1201"><flowRegion
           id="flowRegion1197"><rect
             x="11.429"
             y="21.191999"
             width="677.14001"
             height="691.42999"
             id="rect1195" /></flowRegion><flowPara
           id="flowPara1199" /></flowRoot>      <text
         x="21.166666"
         y="-161.10715"
         font-size="25.4px"
         letter-spacing="0px"
         word-spacing="0px"
         style="font-size:25.39999962px;line-height:1.25;font-family:sans-serif;letter-spacing:0px;word-spacing:0px;fill:#000000;stroke-width:0.26458001"
         xml:space="preserve"
         id="text1205"><tspan
           x="21.166666"
           y="-138.63409"
           font-size="25.4px"
           id="tspan1203"
           style="font-size:25.39999962px;stroke-width:0.26458001" /></text>
      <flowRoot
         font-size="192px"
         letter-spacing="0px"
         word-spacing="0px"
         style="font-size:192px;line-height:1.25;font-family:sans-serif;letter-spacing:0px;word-spacing:0px;fill:#000000;fill-opacity:0"
         xml:space="preserve"
         id="flowRoot1213"><flowRegion
           font-size="192px"
           id="flowRegion1209"
           style="font-size:192px;fill:#000000;fill-opacity:0"><rect
             x="57.143002"
             y="44.049999"
             width="217.14"
             height="451.42999"
             id="rect1207"
             style="fill-opacity:0" /></flowRegion><flowPara
           id="flowPara1211" /></flowRoot>      <g
         transform="matrix(1.1454,0,0,1.1454,-62.191,-401.37)"
         aria-label="T"
         id="g1217">
        <path
           d="m 177.8,214.06 5.376,28.032 h 9.6 l -1.92,-36.48 H 77.196 l -1.536,36.48 h 9.6 l 5.376,-28.032 h 35.136 c 0.384,18.432 0.384,37.44 0.384,56.256 v 10.56 c 0,18.816 0,37.44 -0.384,55.68 l -22.272,2.112 v 6.912 h 61.248 v -6.912 l -22.08,-2.112 c -0.576,-18.432 -0.576,-37.248 -0.576,-55.68 v -10.56 c 0,-19.2 0,-38.016 0.576,-56.256 z"
           id="path1215"
           inkscape:connector-curvature="0" />
      </g>
      <path
         d="m 571.35,-160.33 -389.32,1.5779"
         id="path1219"
         inkscape:connector-curvature="0"
         style="fill:none;stroke:#000000;stroke-width:11.96500015" />
      <path
         d="m 571.35,-119.13 -389.32,1.5779"
         id="path1221"
         inkscape:connector-curvature="0"
         style="fill:none;stroke:#000000;stroke-width:11.96500015" />
      <path
         d="m 571.05,-78.552 -425.32,1.4704"
         id="path1223"
         inkscape:connector-curvature="0"
         style="fill:none;stroke:#000000;stroke-width:12.07199955" />
      <path
         d="m 571.57,-39.96 -425.32,1.4704"
         id="path1225"
         inkscape:connector-curvature="0"
         style="fill:none;stroke:#000000;stroke-width:12.07199955" />
      <path
         d="M 571.58,2.0428 146.26,3.5132"
         id="path1227"
         inkscape:connector-curvature="0"
         style="fill:none;stroke:#000000;stroke-width:12.07199955" />
      <path
         d="M 570.49,47.281 50.87,48.5292"
         id="path1229"
         inkscape:connector-curvature="0"
         style="fill:none;stroke:#000000;stroke-width:12.29500008" />
      <rect
         x="52.160999"
         y="88.758003"
         width="514.04999"
         height="196.87"
         rx="0"
         ry="0"
         style="fill:#999999;stroke:#999999;stroke-width:11.96500015;stroke-linecap:round;stroke-linejoin:round;paint-order:fill markers stroke"
         id="rect1231" />
    </g>
    <g
       transform="translate(509.77,-407.46)"
       id="g1241"
       style="fill:none;stroke:#000000;stroke-width:30;stroke-linecap:round">
      <path
         d="M 400.93,196.9 559.37,41.31 401.41,-115.7"
         id="path1235"
         inkscape:connector-curvature="0"
         style="stroke-linejoin:round" />
      <path
         d="M 194.24,196.9 35.8,41.31 193.76,-115.7"
         id="path1237"
         inkscape:connector-curvature="0"
         style="stroke-linejoin:round" />
      <path
         d="M 235.85,239.55 362.09,-164.13"
         id="path1239"
         inkscape:connector-curvature="0" />
    </g>
  </g>
</svg>
